assets/svgSource/twitter.svg

<svg viewBox="0 0 40 32" fill="none" xmlns="http://www.w3.org/2000/svg">
<path d="M39.2001 4.15998C37.7601 4.79998 36.32 5.27998 34.7201 5.43998C36.32 4.47998 37.6 2.87998 38.2401 1.11998C36.64 2.07998 35.04 2.71998 33.28 3.03998C31.84 1.43998 29.76 0.47998 27.52 0.47998C23.2 0.47998 19.68 3.99998 19.68 8.31998C19.68 8.95998 19.68 9.59998 19.84 10.08C13.12 9.75998 7.36005 6.55998 3.52005 1.75998C2.72005 3.03998 2.40005 4.31998 2.40005 5.75998C2.40005 8.47998 3.84005 10.88 5.92005 12.32C4.64005 12.32 3.36005 12 2.40005 11.36C2.40005 11.36 2.40005 11.36 2.40005 11.52C2.40005 15.36 5.12005 18.56 8.64005 19.2C8.00005 19.36 7.36005 19.52 6.56005 19.52C6.08005 19.52 5.60005 19.52 5.12005 19.36C6.08005 22.56 8.96005 24.8 12.48 24.8C9.76005 26.88 6.40005 28.16 2.72005 28.16C2.08005 28.16 1.44005 28.16 0.800049 28C4.32005 30.24 8.48005 31.52 12.8 31.52C27.3601 31.52 35.2001 19.52 35.2001 9.11998C35.2001 8.79998 35.2001 8.47998 35.2001 8.15998C36.8001 7.03998 38.0801 5.59998 39.2001 4.15998Z" fill="currentColor"/>
</svg>

<svg viewBox="0 0 40 32" fill="none" xmlns="http://www.w3.org/2000/svg"><path d="M39.2 4.16c-1.44.64-2.88 1.12-4.48 1.28 1.6-.96 2.88-2.56 3.52-4.32-1.6.96-3.2 1.6-4.96 1.92A7.746 7.746 0 0 0 27.52.48C23.2.48 19.68 4 19.68 8.32c0 .64 0 1.28.16 1.76-6.72-.32-12.48-3.52-16.32-8.32-.8 1.28-1.12 2.56-1.12 4 0 2.72 1.44 5.12 3.52 6.56-1.28 0-2.56-.32-3.52-.96v.16c0 3.84 2.72 7.04 6.24 7.68-.64.16-1.28.32-2.08.32-.48 0-.96 0-1.44-.16.96 3.2 3.84 5.44 7.36 5.44-2.72 2.08-6.08 3.36-9.76 3.36-.64 0-1.28 0-1.92-.16 3.52 2.24 7.68 3.52 12 3.52 14.56 0 22.4-12 22.4-22.4v-.96c1.6-1.12 2.88-2.56 4-4Z" fill="currentColor"/></svg>
